yundaexpress.svg

<svg viewBox="0 0 24 24" xmlns="http://www.w3.org/2000/svg"><path d="M9.09476 9.86682L9.09476 9.86682L9.2555 9.58945L6.5621 9.58945L6.5621 6.51612L10.4649 6.51612L10.4649 3.1953L13.5382 3.1953L13.5382 6.51612L17.4409 6.51612L17.4409 9.58945L14.749 9.58945L14.9055 9.86682L16.4478 12.5276L13.7872 14.0713L12.3216 11.5443L12.0001 10.9809L11.6771 11.5443L10.213 14.0713L7.55384 12.5276L9.09476 9.86682ZM-1.77636e-15 6.51612L3.07897 6.51612L3.07897 6.51612L3.07897 9.58936L3.07897 9.58936L-1.77636e-15 9.58936L-1.77636e-15 9.58936L-1.77636e-15 6.51612L-1.77636e-15 6.51612ZM12.0001 20.8047C17.3598 20.8047 21.9114 17.3402 23.542 12.5311L20.4658 12.5311C18.9861 15.7281 15.7506 17.9378 12.0001 17.9378C8.24953 17.9378 5.01693 15.7281 3.53715 12.5311L0.461042 12.5311C2.09019 17.3402 6.64174 20.8047 12.0001 20.8047M20.9268 6.51612L24 6.51612L24 6.51612L24 9.58936L24 9.58936L20.9268 9.58936L20.9268 9.58936L20.9268 6.51612L20.9268 6.51612Z" fill="#fabe03"/></svg>

<svg viewBox="0 0 24 24" xmlns="http://www.w3.org/2000/svg"><path d="m9.095 9.867.16-.278H6.563V6.516h3.903v-3.32h3.073v3.32h3.903V9.59h-2.692l.156.278 1.543 2.66-2.66 1.544-1.466-2.527-.322-.563-.323.563-1.464 2.527-2.66-1.543 1.542-2.661ZM0 6.517h3.079v3.072H0V6.516Zm12 14.288c5.36 0 9.911-3.465 11.542-8.274h-3.076A9.32 9.32 0 0 1 12 17.938a9.316 9.316 0 0 1-8.463-5.407H.461c1.63 4.81 6.18 8.274 11.54 8.274m8.926-14.289H24V9.59h-3.073V6.516Z" fill="#fabe03"/></svg>
